images/icon-services-2.svg

<svg width="48" height="49" viewBox="0 0 48 49" fill="none" xmlns="http://www.w3.org/2000/svg">
<path fill-rule="evenodd" clip-rule="evenodd" d="M22.1606 1.17524C21.8083 1.32852 21.3975 1.84237 21.3209 2.22571C21.2596 2.53227 21.6008 5.75474 21.7534 6.30974C21.9348 6.96983 22.5854 7.50927 23.2002 7.50927H23.4376V8.82177C23.4376 10.0093 23.4554 10.1521 23.6251 10.3218C23.7282 10.4249 23.897 10.5093 24.0001 10.5093C24.1032 10.5093 24.272 10.4249 24.3751 10.3218C24.5446 10.1523 24.5626 10.0093 24.5626 8.83415V7.53393L24.935 7.48405C25.4472 7.41533 25.9408 7.08805 26.1496 6.67865C26.2651 6.45233 26.3816 5.83415 26.4923 4.85999C26.6295 3.65305 26.6868 3.38474 26.8067 3.3869C26.8872 3.3883 28.4897 3.67433 30.3676 4.02243L33.7821 4.65533L33.8832 4.95112C34.0904 5.55665 34.5479 6.06543 35.1604 6.37152L35.7487 6.66552H41.5318C47.0152 6.66552 47.3228 6.65662 47.4699 6.49405C47.6749 6.26765 47.6671 5.8889 47.4536 5.69568C47.3012 5.55768 46.9281 5.54052 44.0786 5.54052H40.8751V4.8988C40.8751 4.18696 40.7291 3.94677 40.2963 3.94677C39.9002 3.94677 39.7501 4.21293 39.7501 4.91512V5.54052L37.8985 5.53846C35.6545 5.53593 35.3676 5.45493 35.0484 4.73343C34.8247 4.22774 34.8563 3.80558 35.1487 3.39496C35.566 2.80883 35.4209 2.82177 41.595 2.82177C47.9017 2.82177 47.6626 2.84718 47.6068 2.18221C47.5564 1.58127 47.7417 1.59787 41.3907 1.62637C36.1365 1.64999 35.6429 1.66565 35.3141 1.81893C34.8097 2.05415 34.1858 2.65649 33.9847 3.10246C33.8278 3.45037 33.7907 3.47671 33.5242 3.42815C27.7972 2.38518 26.7614 2.17246 26.6727 2.02077C26.4469 1.63452 26.096 1.28699 25.8122 1.1684C25.3864 0.990553 22.5729 0.99571 22.1606 1.17524ZM22.5512 2.31533C22.4497 2.41677 22.4176 2.56077 22.4518 2.76065C22.4796 2.92321 22.5853 3.75215 22.6867 4.60283C22.8305 5.80799 22.9067 6.17549 23.0317 6.2669C23.1311 6.33955 23.5027 6.38427 24.0076 6.38427C25.1948 6.38427 25.1526 6.44915 25.4068 4.23487C25.6081 2.48137 25.6096 2.4089 25.4463 2.28955C25.1789 2.09399 22.7509 2.11565 22.5512 2.31533ZM14.854 10.3574C13.5311 10.5745 12.2618 11.0686 11.2501 11.76C8.3805 13.7212 7.13634 17.8967 8.01928 22.603C8.58187 25.6021 9.52828 28.1387 11.5694 32.1186C12.204 33.3561 12.8549 34.7129 13.0159 35.1335C13.3928 36.1195 13.8698 37.9414 14.3372 40.1811C14.8638 42.7043 15.0643 43.5446 15.3439 44.3999C16.0972 46.7045 17.1185 47.7542 18.6095 47.7566C19.4216 47.7579 19.9392 47.5194 20.3556 46.952C21.1693 45.8431 21.5031 44.3183 22.0736 39.103C22.6336 33.9845 23.1348 32.2358 24.0417 32.2358C24.504 32.2358 24.7875 32.6759 25.1653 33.9799C25.451 34.9655 25.6986 36.6079 26.065 39.9468C26.5532 44.3949 26.8846 45.8424 27.6625 46.9258C28.0927 47.5247 28.56 47.7486 29.3906 47.754C30.6528 47.7621 31.4368 47.1853 32.1652 45.7124C32.6511 44.7299 32.9727 43.5812 33.658 40.381C34.6058 35.9552 34.8119 35.3492 36.4587 32.1444C38.515 28.1429 39.5284 25.3867 40.0876 22.2749C40.3389 20.8761 40.3231 18.1672 40.0569 17.0194C39.2331 13.4666 37.1993 11.3195 33.8726 10.49C33.2015 10.3226 32.775 10.2839 31.5938 10.2831C29.6302 10.282 28.4974 10.5299 26.5481 11.3869C26.1232 11.5737 25.415 11.7974 24.9742 11.884C23.9103 12.0931 22.9265 11.9711 21.7706 11.487C20.5127 10.96 19.5258 10.6302 18.7032 10.4617C17.6857 10.2534 15.7988 10.2022 14.854 10.3574ZM14.7188 11.5876C11.094 12.3205 9.09131 14.9211 8.93175 19.1024C8.90128 19.8992 8.9264 20.7986 8.99437 21.3524C9.3764 24.4628 10.6687 28.0535 12.8858 32.1655C14.1363 34.4847 14.6067 35.8715 15.3812 39.5223C16.3286 43.9883 16.6471 45.0374 17.3263 45.9295C17.8041 46.5569 18.9003 46.8278 19.3087 46.4194C20.0185 45.7096 20.3526 44.1375 20.9531 38.6811C21.3797 34.805 21.7768 33.0048 22.4191 32.0351C23.4172 30.5282 25.1399 30.8099 25.9361 32.6104C26.4359 33.7405 26.7673 35.5784 27.1913 39.5718C27.671 44.0878 28.1281 46.0122 28.8305 46.4725C29.1369 46.6733 29.9184 46.6063 30.2648 46.3496C31.1795 45.6719 31.5923 44.5311 32.5314 40.0874C33.4164 35.8997 33.8472 34.604 35.1964 32.0718C38.6297 25.6282 39.7913 20.7226 38.8098 16.8131C38.5117 15.6262 37.7799 14.2576 37.0466 13.5158C35.7858 12.2404 33.8407 11.4501 31.9562 11.4475C31.4958 11.4469 31.4082 11.4769 31.2743 11.6811C31.0758 11.9842 30.5306 12.0119 30.3533 11.728C30.2889 11.6249 30.1463 11.5405 30.0365 11.5405C29.6138 11.5405 28.0216 12.0083 27.0869 12.4071C25.9792 12.8796 25.416 13.0324 24.4437 13.1238L23.7657 13.1876L24.2276 13.4879C24.4816 13.6531 24.8402 13.8151 25.0245 13.8478C25.4066 13.9159 25.7813 14.2153 25.7813 14.4528C25.7813 14.5412 25.7034 14.7097 25.6082 14.8273C25.4714 14.9962 25.3501 15.0378 25.0309 15.0253C24.3738 14.9995 23.7436 14.6388 22.7602 13.7255C22.2029 13.208 21.6014 12.7498 21.2133 12.5474C20.4449 12.1467 18.9489 11.6593 18.2271 11.5745L17.6995 11.5124L17.8498 11.8031C18.0472 12.1847 18.0394 12.345 17.8126 12.5718C17.4111 12.9733 16.9618 12.7222 16.594 11.891L16.3975 11.4468L15.8629 11.4556C15.5688 11.4605 15.054 11.5198 14.7188 11.5876ZM29.3629 12.2065C29.0027 12.5749 28.5001 13.5105 28.5001 13.8126C28.5001 14.1021 28.7702 14.353 29.0819 14.353C29.3587 14.353 29.4439 14.2653 29.7741 13.6401C29.9074 13.3877 30.0971 13.0941 30.1957 12.9876C30.4447 12.7189 30.4299 12.2458 30.1667 12.0615C29.8619 11.8479 29.6815 11.8806 29.3629 12.2065ZM18.2049 12.7296C18.0172 12.8047 17.8914 13.2125 17.9959 13.4076C18.0451 13.4995 18.372 13.8546 18.7224 14.1966C19.4263 14.8836 19.7482 14.9878 20.0104 14.6134C20.2245 14.3077 20.1913 14.1043 19.8601 13.6921C19.2522 12.9357 18.6155 12.5654 18.2049 12.7296ZM28.547 14.7463C28.2785 14.8986 28.2219 15.0119 28.2203 15.4005C28.2193 15.6237 28.1408 15.8381 27.9973 16.0099C27.8754 16.1556 27.7481 16.3632 27.7144 16.4711C27.633 16.7316 27.9739 17.1655 28.2599 17.1655C28.7891 17.1655 29.3449 16.3201 29.3424 15.5187C29.3408 15.0024 29.2945 14.8979 28.9985 14.7421C28.7548 14.6138 28.781 14.6136 28.547 14.7463ZM19.6849 15.2469C19.3896 15.6028 19.6314 16.2607 20.2762 16.855C20.817 17.3536 21.0471 17.4244 21.3629 17.1894C21.77 16.8867 21.7349 16.6306 21.2196 16.1423C20.9699 15.9059 20.6938 15.5752 20.6061 15.4077C20.4732 15.1544 20.3922 15.103 20.1253 15.103C19.9488 15.103 19.7506 15.1678 19.6849 15.2469ZM26.5782 16.7174C26.372 16.763 25.9757 16.8297 25.6975 16.8657C25.2949 16.9178 25.1521 16.9845 24.9964 17.1933C24.8159 17.4351 24.8118 17.4749 24.9425 17.7089C25.058 17.9155 25.1616 17.968 25.5031 17.9929C26.0161 18.0303 26.972 17.8552 27.2579 17.6717C27.4078 17.5754 27.4688 17.4452 27.4688 17.2217C27.4688 16.7445 27.1844 16.5834 26.5782 16.7174ZM22.0927 16.8682C21.8993 17.0819 21.8921 17.4816 22.0783 17.6678C22.2183 17.8078 22.7946 17.9468 23.6539 18.0479C24.0457 18.094 24.1343 18.0711 24.3336 17.8718C24.8503 17.3551 24.5258 17.0039 23.3696 16.8283C22.3001 16.6659 22.2751 16.6667 22.0927 16.8682Z" fill="#1E84B5"/>
<path fill-rule="evenodd" clip-rule="evenodd" d="M22.1605 1.17526C21.8082 1.32854 21.3974 1.84238 21.3208 2.22572C21.2595 2.53229 21.6007 5.75476 21.7532 6.30976C21.9346 6.96985 22.5853 7.50929 23.2001 7.50929H23.4375V8.82179C23.4375 10.0093 23.4553 10.1521 23.625 10.3218C23.7281 10.4249 23.8968 10.5093 24 10.5093C24.1031 10.5093 24.2718 10.4249 24.375 10.3218C24.5445 10.1523 24.5625 10.0093 24.5625 8.83416V7.53394L24.9348 7.48407C25.4471 7.41535 25.9407 7.08807 26.1495 6.67866C26.265 6.45235 26.3815 5.83416 26.4922 4.86001C26.6294 3.65307 26.6866 3.38476 26.8065 3.38691C26.8871 3.38832 28.4895 3.67435 30.3675 4.02244L33.7819 4.65535L33.8831 4.95113C34.0903 5.55666 34.5478 6.06544 35.1602 6.37154L35.7486 6.66554H41.5317C47.015 6.66554 47.3227 6.65663 47.4698 6.49407C47.6747 6.26766 47.667 5.88891 47.4535 5.69569C47.301 5.55769 46.9279 5.54054 44.0785 5.54054H40.875V4.89882C40.875 4.18697 40.729 3.94679 40.2961 3.94679C39.9 3.94679 39.75 4.21294 39.75 4.91513V5.54054L37.8984 5.53847C35.6544 5.53594 35.3674 5.45494 35.0483 4.73344C34.8246 4.22776 34.8562 3.8056 35.1486 3.39497C35.5659 2.80885 35.4208 2.82179 41.5949 2.82179C47.9015 2.82179 47.6625 2.84719 47.6067 2.18222C47.5562 1.58129 47.7416 1.59788 41.3906 1.62638C36.1364 1.65001 35.6428 1.66566 35.314 1.81894C34.8096 2.05416 34.1857 2.65651 33.9846 3.10247C33.8277 3.45038 33.7905 3.47672 33.5241 3.42816C27.797 2.38519 26.7613 2.17247 26.6726 2.02079C26.4467 1.63454 26.0958 1.28701 25.812 1.16841C25.3862 0.990569 22.5728 0.995725 22.1605 1.17526ZM22.551 2.31535C22.4496 2.41679 22.4175 2.56079 22.4517 2.76066C22.4794 2.92322 22.5852 3.75216 22.6866 4.60285C22.8303 5.80801 22.9065 6.17551 23.0315 6.26691C23.131 6.33957 23.5025 6.38429 24.0075 6.38429C25.1947 6.38429 25.1524 6.44916 25.4067 4.23488C25.608 2.48138 25.6095 2.40891 25.4461 2.28957C25.1788 2.09401 22.7507 2.11566 22.551 2.31535Z" fill="#0E384C"/>
</svg>

<svg xmlns="http://www.w3.org/2000/svg" width="48" height="49" fill="none" viewBox="0 0 48 49"><path fill="#1e84b5" fill-rule="evenodd" d="M22.16 1.175c-.352.154-.762.667-.84 1.05-.06.307.28 3.53.433 4.085.182.66.832 1.2 1.447 1.2h.238v1.312c0 1.187.017 1.33.187 1.5.103.103.272.187.375.187s.272-.084.375-.187c.17-.17.188-.313.188-1.488v-1.3l.372-.05c.512-.069 1.006-.396 1.215-.805.115-.227.232-.845.342-1.819.137-1.207.195-1.475.315-1.473.08.001 1.683.287 3.56.635l3.415.633.101.296c.207.606.665 1.114 1.277 1.42l.589.295h5.783c5.483 0 5.79-.01 5.938-.172.205-.226.197-.605-.016-.798-.153-.138-.526-.155-3.375-.155h-3.204v-.642c0-.712-.146-.952-.579-.952-.396 0-.546.266-.546.968v.626l-1.852-.003c-2.244-.002-2.53-.083-2.85-.805-.223-.505-.192-.927.1-1.338.418-.586.273-.573 6.447-.573 6.307 0 6.068.025 6.012-.64-.05-.6.135-.584-6.216-.556-5.254.024-5.748.04-6.077.193-.504.235-1.128.837-1.33 1.283-.156.348-.193.375-.46.326-5.727-1.043-6.763-1.256-6.851-1.407-.226-.386-.577-.734-.86-.853-.427-.177-3.24-.172-3.652.007m.391 1.14c-.101.102-.133.246-.1.446.029.162.134.991.236 1.842.143 1.205.22 1.572.345 1.664.1.073.47.117.976.117 1.187 0 1.145.065 1.399-2.15.201-1.753.203-1.825.04-1.944-.268-.196-2.696-.174-2.896.025m-7.697 8.042c-1.323.218-2.592.712-3.604 1.403-2.87 1.961-4.114 6.137-3.23 10.843.562 3 1.508 5.536 3.55 9.516.634 1.237 1.285 2.594 1.446 3.014.377.986.854 2.808 1.321 5.048.527 2.523.727 3.364 1.007 4.219.753 2.305 1.775 3.354 3.266 3.357.812 0 1.33-.238 1.746-.805.813-1.109 1.147-2.634 1.718-7.849.56-5.119 1.06-6.867 1.968-6.867.462 0 .745.44 1.123 1.744.286.986.534 2.628.9 5.967.488 4.448.82 5.895 1.598 6.979.43.599.897.823 1.728.828 1.262.008 2.046-.569 2.774-2.042.486-.982.808-2.13 1.493-5.331.948-4.426 1.154-5.032 2.8-8.237 2.057-4.001 3.07-6.757 3.63-9.87.25-1.398.235-4.107-.031-5.255-.824-3.552-2.858-5.7-6.184-6.529-.671-.167-1.098-.206-2.28-.207-1.963-.001-3.096.247-5.045 1.104a9 9 0 0 1-1.574.497c-1.064.21-2.047.087-3.203-.397-1.258-.527-2.245-.857-3.068-1.025-1.017-.209-2.904-.26-3.849-.105m-.135 1.23c-3.625.733-5.628 3.334-5.787 7.515-.03.797-.006 1.697.062 2.25.382 3.11 1.675 6.701 3.892 10.814 1.25 2.319 1.72 3.706 2.495 7.356.948 4.466 1.266 5.515 1.945 6.407.478.628 1.574.899 1.983.49.71-.71 1.044-2.281 1.644-7.738.427-3.876.824-5.676 1.466-6.646.998-1.507 2.72-1.225 3.517.575.5 1.13.831 2.968 1.255 6.962.48 4.516.937 6.44 1.64 6.9.306.201 1.087.134 1.434-.122.915-.678 1.327-1.819 2.266-6.263.885-4.187 1.316-5.483 2.665-8.015 3.434-6.444 4.595-11.35 3.614-15.259-.298-1.187-1.03-2.555-1.763-3.297-1.261-1.276-3.206-2.066-5.09-2.068-.461-.001-.549.029-.683.233-.198.303-.743.33-.92.047a.43.43 0 0 0-.317-.187c-.423 0-2.015.467-2.95.866-1.108.473-1.671.625-2.643.717l-.678.064.462.3c.254.165.612.327.796.36.383.068.757.367.757.605 0 .088-.078.257-.173.374-.137.17-.258.21-.577.198-.657-.026-1.287-.386-2.27-1.3-.558-.517-1.16-.975-1.548-1.178-.768-.4-2.264-.888-2.986-.973l-.527-.062.15.291c.197.382.19.542-.037.769-.402.401-.851.15-1.219-.681l-.197-.444-.534.009a8 8 0 0 0-1.144.132m14.644.62c-.36.368-.863 1.303-.863 1.606 0 .29.27.54.582.54.277 0 .362-.088.692-.713.133-.252.323-.546.422-.652.249-.27.234-.742-.03-.926-.304-.214-.485-.181-.803.145m-11.158.523c-.188.075-.314.482-.21.678.05.091.377.447.727.789.704.687 1.026.79 1.288.416.214-.305.181-.509-.15-.92-.608-.757-1.244-1.128-1.655-.963m10.342 2.016c-.268.153-.325.266-.327.654a.96.96 0 0 1-.223.61 1.8 1.8 0 0 0-.283.461c-.081.26.26.695.546.695.53 0 1.085-.846 1.082-1.647-.001-.517-.047-.621-.343-.777-.244-.128-.218-.128-.452.004m-8.862.5c-.295.357-.054 1.015.591 1.609.541.499.771.57 1.087.334.407-.302.372-.558-.143-1.047-.25-.236-.526-.567-.614-.734-.133-.254-.214-.305-.48-.305-.177 0-.375.065-.441.144m6.893 1.471a12 12 0 0 1-.88.149c-.403.052-.546.119-.702.327-.18.242-.184.282-.053.516.115.207.219.259.56.284.513.037 1.469-.138 1.755-.321.15-.097.21-.227.21-.45 0-.478-.284-.639-.89-.505m-4.485.151c-.194.214-.2.614-.015.8.14.14.717.279 1.576.38.392.046.48.023.68-.176.516-.517.192-.868-.964-1.044-1.07-.162-1.095-.161-1.277.04" clip-rule="evenodd"/><path fill="#0e384c" fill-rule="evenodd" d="M22.16 1.175c-.352.154-.763.667-.84 1.05-.06.307.28 3.53.433 4.085.182.66.832 1.2 1.447 1.2h.238v1.312c0 1.187.017 1.33.187 1.5.103.103.272.187.375.187s.272-.084.375-.187c.17-.17.188-.313.188-1.488v-1.3l.372-.05c.512-.069 1.006-.396 1.215-.805.115-.227.232-.845.342-1.819.137-1.207.195-1.475.314-1.473.081.001 1.683.287 3.561.635l3.415.633.101.296c.207.606.665 1.114 1.277 1.42l.589.295h5.783c5.483 0 5.79-.01 5.938-.172.205-.226.197-.605-.017-.798-.152-.138-.525-.155-3.375-.155h-3.203v-.642c0-.712-.146-.952-.579-.952-.396 0-.546.266-.546.968v.626l-1.852-.003c-2.244-.002-2.53-.083-2.85-.805-.223-.505-.192-.927.1-1.338.418-.586.273-.573 6.447-.573 6.307 0 6.068.025 6.012-.64-.05-.6.135-.584-6.216-.556-5.255.024-5.748.04-6.077.193-.504.235-1.128.838-1.33 1.283-.156.348-.194.375-.46.326-5.727-1.043-6.763-1.256-6.851-1.407-.226-.386-.577-.734-.861-.853-.426-.177-3.24-.172-3.652.007m.391 1.14c-.101.102-.133.246-.1.446.028.162.134.991.236 1.842.143 1.205.22 1.573.345 1.664.099.073.47.117.976.117 1.187 0 1.144.065 1.399-2.15.201-1.753.203-1.825.04-1.944-.268-.196-2.696-.174-2.896.025" clip-rule="evenodd"/></svg>
